Origami/64x64/apps/document-print-preview.svg

<svg width="64" height="64" version="1" xmlns="http://www.w3.org/2000/svg">
 <path d="m6 38.408v2c0 1.434 1.16172 2.629 2.6016 2.59h7.3984v-2h-7.3984c-1.4404 2e-3 -2.6016-1.154-2.6016-2.59zm52 0c0 1.434-1.162 2.59-2.602 2.59h-7.398v2h7.3984c1.44 0 2.602-1.156 2.602-2.59v-2zm-42 14.592v2h32v-2z" style="opacity:.2"/>
 <rect transform="matrix(0,-1,-1,0,0,0)" x="-42" y="-58" width="22" height="52" rx="2.588" ry="2.6" style="fill:#4f4f4f"/>
 <path d="m48 22v-18h-32v18z" style="fill:#cccccc"/>
 <path d="m14 30h36v6h-36z" style="opacity:.1"/>
 <path d="m48 54v-22h-32v22z" style="fill:#cccccc"/>
 <path d="m10 22h2v2h-2z" style="fill:#f34235"/>
 <path d="M 63.958,43.848 A 16,16 0 0 1 48,59 16,16 0 0 1 32.042,44.152 16,16 0 0 0 32,45 16,16 0 0 0 48,61 16,16 0 0 0 64,45 16,16 0 0 0 63.95704,43.84766 Z" style="fill-rule:evenodd;opacity:.2"/>
 <circle cx="48" cy="44" r="16" style="fill-rule:evenodd;fill:#c03630"/>
 <path d="m48 38v0.001953c-1.93854 0.01824-3.889525 0.442705-5.578125 1.361328-0.67302 0.420809-1.480984 0.964124-2.089844 1.511719-0.958 0.900404-1.778031 1.950092-2.332031 3.126953 1.51868 3.215919 4.856497 5.573617 8.529297 5.921875 2.4092 0.261789 4.931028-0.138846 7.048828-1.283203 0.673-0.420809 1.480984-0.964123 2.089844-1.511719 0.958-0.902323 1.778031-1.952012 2.332031-3.126953-1.518-3.215728-4.857297-5.572431-8.529297-5.919922-0.488-0.05568-0.980703-0.082031-1.470703-0.082031zm0.003906 2c2.139701-0.04741 4.034404 1.867621 3.994141 3.996094 0.06857 2.352448-2.274639 4.382658-4.591797 3.943359-2.340165-0.274786-3.984532-2.901019-3.214844-5.125 0.492105-1.636189 2.099539-2.831674 3.814453-2.8125l-0.001953-0.001953zm-0.003906 2a1.9999991 1.9988487 0 0 0 -2 2.001953 1.9999991 1.9988487 0 0 0 2 1.998047 1.9999991 1.9988487 0 0 0 2 -1.998047 1.9999991 1.9988487 0 0 0 -2 -1.992187v-0.009766z" style="fill-rule:evenodd;fill:#ffffff"/>
</svg>

<svg xmlns="http://www.w3.org/2000/svg" width="64" height="64" version="1">
 <path style="opacity:0.2" d="m 6,38.408 0,2 c 0,1.434 1.16172,2.629 2.6016,2.59 l 7.3984,0 0,-2 -7.3984,0 C 7.1612,41 6,39.844 6,38.408 Z m 52,0 c 0,1.434 -1.162,2.59 -2.602,2.59 l -7.398,0 0,2 7.3984,0 c 1.44,0 2.602,-1.156 2.602,-2.59 l 0,-2 z M 16,53 l 0,2 32,0 0,-2 z"/>
 <rect style="fill:#4f4f4f" width="22" height="52" x="-42" y="-58" rx="2.588" ry="2.6" transform="matrix(0,-1,-1,0,0,0)"/>
 <path style="fill:#cccccc" d="M 48,22 48,4 16,4 16,22 Z"/>
 <path style="opacity:0.1" d="m 14,30 36,0 0,6 -36,0 z"/>
 <path style="fill:#cccccc" d="m 48,54 0,-22 -32,0 0,22 z"/>
 <path style="fill:#f34235" d="m 10,22 2,0 0,2 -2,0 z"/>
 <path style="opacity:0.2;fill-rule:evenodd" d="M 63.958,43.848 A 16,16 0 0 1 48,59 16,16 0 0 1 32.042,44.152 16,16 0 0 0 32,45 16,16 0 0 0 48,61 16,16 0 0 0 64,45 16,16 0 0 0 63.95704,43.84766 Z"/>
 <circle style="fill:#c03630;fill-rule:evenodd" cx="48" cy="44" r="16"/>
 <path style="fill:#ffffff;fill-rule:evenodd" d="M 48 38 L 48 38.001953 C 46.06146 38.020193 44.110475 38.444658 42.421875 39.363281 C 41.748855 39.78409 40.940891 40.327405 40.332031 40.875 C 39.374031 41.775404 38.554 42.825092 38 44.001953 C 39.51868 47.217872 42.856497 49.57557 46.529297 49.923828 C 48.938497 50.185617 51.460325 49.784982 53.578125 48.640625 C 54.251125 48.219816 55.059109 47.676502 55.667969 47.128906 C 56.625969 46.226583 57.446 45.176894 58 44.001953 C 56.482 40.786225 53.142703 38.429522 49.470703 38.082031 C 48.982703 38.026351 48.49 38 48 38 z M 48.003906 40 C 50.143607 39.95259 52.03831 41.867621 51.998047 43.996094 C 52.066617 46.348542 49.723408 48.378752 47.40625 47.939453 C 45.066085 47.664667 43.421718 45.038434 44.191406 42.814453 C 44.683511 41.178264 46.290945 39.982779 48.005859 40.001953 L 48.003906 40 z M 48 42 A 1.9999991 1.9988487 0 0 0 46 44.001953 A 1.9999991 1.9988487 0 0 0 48 46 A 1.9999991 1.9988487 0 0 0 50 44.001953 A 1.9999991 1.9988487 0 0 0 48 42.009766 L 48 42 z"/>
</svg>
